SVG/ticket.svg

<?xml version="1.0" encoding="utf-8"?>
<!-- Generated by IcoMoon.io -->
<!DOCTYPE svg PUBLIC "-//W3C//DTD SVG 1.1//EN" "http://www.w3.org/Graphics/SVG/1.1/DTD/svg11.dtd">
<svg version="1.1" xmlns="http://www.w3.org/2000/svg" xmlns:xlink="http://www.w3.org/1999/xlink" width="14" height="14" viewBox="0 0 14 14">
<path fill="#444444" d="M8 3.531l2.469 2.469-4.469 4.469-2.469-2.469zM6.352 11.18l4.828-4.828q0.148-0.148 0.148-0.352t-0.148-0.352l-2.828-2.828q-0.141-0.141-0.352-0.141t-0.352 0.141l-4.828 4.828q-0.148 0.148-0.148 0.352t0.148 0.352l2.828 2.828q0.141 0.141 0.352 0.141t0.352-0.141zM13.297 6.203l-7.086 7.094q-0.289 0.289-0.707 0.289t-0.707-0.289l-0.984-0.984q0.438-0.438 0.438-1.062t-0.438-1.062-1.062-0.438-1.062 0.438l-0.977-0.984q-0.289-0.289-0.289-0.707t0.289-0.707l7.086-7.078q0.289-0.289 0.707-0.289t0.707 0.289l0.977 0.977q-0.438 0.438-0.438 1.062t0.438 1.062 1.062 0.438 1.062-0.438l0.984 0.977q0.289 0.289 0.289 0.707t-0.289 0.707z"></path>
</svg>

<svg xmlns="http://www.w3.org/2000/svg" viewBox="0 0 14 14"><path d="M8 3.53L10.47 6 6 10.47 3.53 8zm-1.648 7.65l4.828-4.828q.148-.148.148-.352t-.148-.352L8.352 2.82q-.14-.14-.352-.14t-.352.14L2.82 7.648q-.148.148-.148.352t.148.352l2.828 2.828q.14.14.352.14t.352-.14zm6.945-4.977L6.21 13.297q-.288.29-.706.29t-.707-.29l-.984-.984q.438-.438.438-1.062t-.433-1.06-1.062-.44-1.06.44L.71 9.208Q.42 8.917.42 8.5t.29-.708L7.798.715q.29-.29.707-.29t.707.29l.977.977q-.44.44-.44 1.064t.44 1.062 1.06.438 1.06-.438l.983.977q.29.29.29.708t-.29.708z" /></svg>
